www/assets/icons/view_sidebar.svg

<svg xmlns="http://www.w3.org/2000/svg" width="24" height="24" viewBox="0 0 24 24" fill='currentColor'><path d="M16 20H2V4h14zm2-12h4V4h-4zm0 12h4v-4h-4zm0-6h4v-4h-4z"/></svg>

<svg width="24" height="24" viewBox="0 0 24 24" xmlns="http://www.w3.org/2000/svg" fill='currentColor'><path d="M16 20H2V4H16V20ZM18 8H22V4H18V8ZM18 20H22V16H18V20ZM18 14H22V10H18V14Z"/></svg>
